src/cart/components/img/bad.svg

<svg height="50" viewBox="0 0 50 50" width="50" xmlns="http://www.w3.org/2000/svg"><g fill="#b2b2b2"><path d="m25 45.814c-11.478 0-20.82-9.337-20.82-20.815s9.342-20.819 20.82-20.819c11.479 0 20.815 9.341 20.815 20.819 0 11.479-9.336 20.815-20.815 20.815m0-45.814c-13.787 0-25 11.212-25 24.999 0 13.782 11.213 25 25 25 13.781 0 25-11.218 25-25 0-13.787-11.219-24.999-25-24.999"/><path d="m30.951 23.171c1.87 0 3.391-1.52 3.391-3.396s-1.521-3.396-3.391-3.396c-1.883 0-3.402 1.52-3.402 3.396s1.519 3.396 3.402 3.396"/><path d="m19.049 23.171c1.876 0 3.396-1.52 3.396-3.396s-1.52-3.396-3.396-3.396c-1.87 0-3.396 1.52-3.396 3.396s1.526 3.396 3.396 3.396"/><path d="m24.994 27.883c-4.067 0-7.884 1.801-10.474 4.933-.735.888-.612 2.205.276 2.939.894.736 2.211.618 2.946-.269 1.792-2.178 4.433-3.417 7.251-3.417 2.824 0 5.469 1.243 7.268 3.431.408.496 1.002.765 1.614.765.462 0 .935-.164 1.325-.479.887-.732 1.02-2.05.288-2.938-2.592-3.159-6.425-4.965-10.494-4.965"/></g></svg>

<?xml version="1.0" encoding="UTF-8"?>
<svg width="50px" height="50px" viewBox="0 0 50 50" version="1.1" xmlns="http://www.w3.org/2000/svg" xmlns:xlink="http://www.w3.org/1999/xlink">
    <!-- Generator: Sketch 48.2 (47327) - http://www.bohemiancoding.com/sketch -->
    <title>Artboard 3</title>
    <desc>Created with Sketch.</desc>
    <defs></defs>
    <g id="2018011811" stroke="none" stroke-width="1" fill="none" fill-rule="evenodd">
        <g id="Artboard-3" fill="#B2B2B2" fill-rule="nonzero">
            <g id="Group-58">
                <path d="M25,45.814 C13.522,45.814 4.18,36.477 4.18,24.999 C4.18,13.521 13.522,4.18 25,4.18 C36.479,4.18 45.815,13.521 45.815,24.999 C45.815,36.478 36.479,45.814 25,45.814 M25,0 C11.213,0 0,11.212 0,24.999 C0,38.781 11.213,49.999 25,49.999 C38.781,49.999 50,38.781 50,24.999 C50,11.212 38.781,0 25,0" id="Fill-1"></path>
                <path d="M30.951,23.171 C32.821,23.171 34.342,21.651 34.342,19.775 C34.342,17.899 32.821,16.379 30.951,16.379 C29.068,16.379 27.549,17.899 27.549,19.775 C27.549,21.651 29.068,23.171 30.951,23.171" id="Fill-3"></path>
                <path d="M19.049,23.171 C20.925,23.171 22.445,21.651 22.445,19.775 C22.445,17.899 20.925,16.379 19.049,16.379 C17.179,16.379 15.653,17.899 15.653,19.775 C15.653,21.651 17.179,23.171 19.049,23.171" id="Fill-5"></path>
                <path d="M24.994,27.883 C20.927,27.883 17.11,29.684 14.52,32.816 C13.785,33.704 13.908,35.021 14.796,35.755 C15.69,36.491 17.007,36.373 17.742,35.486 C19.534,33.308 22.175,32.069 24.993,32.069 C27.817,32.069 30.462,33.312 32.261,35.5 C32.669,35.996 33.263,36.265 33.875,36.265 C34.337,36.265 34.81,36.101 35.2,35.786 C36.087,35.054 36.22,33.736 35.488,32.848 C32.896,29.689 29.063,27.883 24.994,27.883" id="Fill-7"></path>
            </g>
        </g>
    </g>
</svg>
